src/images/mstable-logo.svg

<svg viewBox="0 0 343 60" xmlns="http://www.w3.org/2000/svg" fill="white">
<path d="M80.7682 39.5723C80.7682 42.2008 80.6174 50.1575 90.6146 50.1575C96.9276 50.1575 100.91 47.0672 100.91 42.3558C100.91 37.4087 97.5274 36.5433 90.6146 34.8609C77.687 31.5381 70.6234 27.5985 70.6234 17.9401C70.6234 8.74341 77.0118 0.631744 92.1159 0.631744C97.7693 0.631744 104.44 1.94602 108.501 7.19987C111.583 11.217 111.583 15.699 111.583 17.5526H100.382C100.235 15.6151 99.6318 9.05341 91.5882 9.05341C86.1766 9.05341 82.6464 12.0662 82.6464 16.6258C82.6464 21.7925 86.6289 22.7289 94.4432 24.7375C103.84 27.0625 113.084 29.6846 113.084 40.5765C113.084 50.6225 104.968 58.7341 89.9361 58.7341C69.1221 58.7341 68.9713 44.9811 68.8928 39.5723H80.7682Z" />
<path d="M132.098 10.8295H115.942V1.55209H159.979V10.8295H143.823V57.4167H132.098V10.8295Z" />
<path d="M187.486 1.55209L206.35 57.4167H194.625L190.718 45.3622H169.226L165.168 57.4167H154.04L173.66 1.55209H187.486ZM187.8 36.3205L180.272 12.5313L172.231 36.327L187.8 36.3205Z" />
<path d="M213.04 1.63603H233.329C236.47 1.63603 242.572 1.63603 246.706 4.26457C251.665 7.50989 252.793 12.9155 252.793 16.1608C252.793 18.2469 252.419 21.8797 249.652 24.5082C249.278 24.97 246.646 27.4435 243.49 28.2928V28.4478C251.756 29.9914 254.988 36.1752 254.988 42.0458C254.988 48.614 251.219 53.025 247.023 55.1821C242.799 57.4167 235.433 57.4167 233.329 57.4167H213.04V1.63603ZM224.161 24.3532H232.277C235.584 24.3532 241.596 24.3532 241.596 17.1651C241.596 10.2127 235.886 10.2127 232.051 10.2127H224.161V24.3532ZM224.161 48.459H232.051C237.39 48.459 243.398 48.459 243.398 40.9641C243.398 33.0074 236.41 33.0074 230.835 33.0074H224.161V48.459Z" />
<path d="M263.239 1.63603H275.114V47.9165H298.409V57.4167H263.233L263.239 1.63603Z" />
<path d="M305.401 1.55209H341.774V10.6777H317.047V23.9657H340.191V33.0817H317.047V48.149H342.597V57.4167H305.401V1.55209Z" />
<path d="M0.432926 8.30428C0.432926 5.83397 0.282167 3.43793 0.0560303 0.964383H10.8195L11.1933 5.98897C12.3899 4.2872 15.3109 0.115112 22.9022 0.115112C31.621 0.115112 34.0991 5.6047 34.8372 7.45501C37.978 1.19688 43.1038 0.192612 47.0141 0.192612C54.6776 0.192612 57.7587 4.9072 58.5847 6.45074C60.6137 9.85105 60.4692 14.5624 60.4692 17.9627V39.3333H49.2786V17.0521C49.2786 12.88 48.6787 8.24292 42.8933 8.24292C36.2034 8.24292 36.0527 14.6561 36.0527 20.4524V39.3333H24.8557V16.8034C24.8557 13.7906 24.7804 8.22678 18.6181 8.22678C11.6299 8.22678 11.6299 14.4106 11.6299 17.0521V39.3333H0.432926V8.30428Z" />
<path d="M0.0560303 47.9164H60.4786V57.4167H0.0560303V47.9164Z" />
</svg>

<svg viewBox="0 0 343 60" xmlns="http://www.w3.org/2000/svg" fill="#fff"><path d="M80.768 39.572c0 2.629-.15 10.585 9.847 10.585 6.313 0 10.295-3.09 10.295-7.801 0-4.947-3.383-5.813-10.295-7.495-12.928-3.323-19.992-7.262-19.992-16.92 0-9.198 6.389-17.31 21.493-17.31 5.653 0 12.324 1.315 16.385 6.569 3.082 4.017 3.082 8.499 3.082 10.353h-11.201c-.147-1.938-.75-8.5-8.794-8.5-5.411 0-8.942 3.013-8.942 7.573 0 5.166 3.983 6.103 11.797 8.111 9.397 2.326 18.641 4.948 18.641 15.84 0 10.046-8.116 18.157-23.148 18.157-20.814 0-20.965-13.753-21.043-19.162h11.875zM132.098 10.83h-16.156V1.551h44.037v9.277h-16.156v46.588h-11.725V10.829zM187.486 1.552l18.864 55.865h-11.725l-3.907-12.055h-21.492l-4.058 12.055H154.04l19.62-55.865h13.826zm.314 34.769l-7.528-23.79-8.041 23.796 15.569-.006zM213.04 1.636h20.289c3.141 0 9.243 0 13.377 2.629 4.959 3.245 6.087 8.65 6.087 11.896 0 2.086-.374 5.719-3.141 8.347-.374.462-3.006 2.936-6.162 3.785v.155c8.266 1.543 11.498 7.727 11.498 13.598 0 6.568-3.769 10.979-7.965 13.136-4.224 2.235-11.59 2.235-13.694 2.235H213.04V1.636zm11.121 22.717h8.116c3.307 0 9.319 0 9.319-7.188 0-6.952-5.71-6.952-9.545-6.952h-7.89v14.14zm0 24.106h7.89c5.339 0 11.347 0 11.347-7.495 0-7.957-6.988-7.957-12.563-7.957h-6.674V48.46zM263.239 1.636h11.875v46.28h23.295v9.5h-35.176l.006-55.78zM305.401 1.552h36.373v9.126h-24.727v13.288h23.144v9.116h-23.144v15.067h25.55v9.268h-37.196V1.552zM.433 8.304c0-2.47-.15-4.866-.377-7.34H10.82l.373 5.025C12.39 4.287 15.311.115 22.903.115c8.718 0 11.196 5.49 11.934 7.34C37.978 1.197 43.104.193 47.014.193c7.664 0 10.745 4.714 11.57 6.258 2.03 3.4 1.885 8.111 1.885 11.512v21.37H49.28v-22.28c0-4.173-.6-8.81-6.386-8.81-6.69 0-6.84 6.413-6.84 12.21v18.88H24.856v-22.53c0-3.012-.076-8.576-6.238-8.576-6.988 0-6.988 6.184-6.988 8.825v22.281H.433V8.304zM.056 47.916h60.423v9.5H.056v-9.5z"/></svg>
